X: 21742
T: THE MERIVU POLKA
R: polka
B: K\"ohler's Violin Repository, v.2, 1885 p.174 #2
F: http://www.archive.org/details/klersviolinrepos02rugg
Z: 2012 John Chambers <jc:trillian.mit.edu>
M: 2/4
L: 1/16
K: F
|:\
vcAcf e2d2 | c2A2 FAcd | c2B2 EGBd | c2A2 FGAB |\
cAcf e2d2 | c2A2 FAcd | cBGE C2DE | [F2A,2][F2A,2][F2A,2] :|
K: C
|: vEuF |\
GAB2 cde2 | g2 f4 ed | d2(Bc) dfed | d2c2 dcBA |\
GAB2 cde2 | g2 f4 ed | (dc)BA (^FG)ed | [c2E2][c2E2][c2E2] "^D.C.":|
K: Bb
"1st Trio"\
|: uF2 |\
B2F2 {c}BABd | c2G2 cdeg | f2d2 fecA | Bdce dfec |\
B2F2 {c}BABd | c2G2 cdeg | fecA F2(GA) | [B2D2][B2D2][B2D2] "^D.C.":|
K: Bb
"2nd Trio"\
|: F2 !segno!|\
B2B2 (.A3.F) | e2e2 (.d3.d) | c2c2 (.A3.F) | (B2d2)c2f2 |\
B2B2 (.A3.F) | e2e2 (.d3.d) |[1 (dc).A.F (cB).G.=E | F2^F2G2A2 !segno!:|[2 dcAF (.d3.c) | [B2D2][B2D2]"_Fine."[B2D2] "^D.C."|]

%%sep 2 1 500

